sequoia/src/pages/Main/Utility/assets/co2.svg

<svg width="112" height="120" viewBox="0 0 112 120" fill="none" xmlns="http://www.w3.org/2000/svg">
<g filter="url(#filter0_dii_370_25050)">
<path d="M52.6266 11.8554C54.7272 10.7001 57.2729 10.7001 59.3734 11.8554L92.3734 30.0054C94.6103 31.2356 96 33.5861 96 36.1389V71.8611C96 74.4139 94.6103 76.7644 92.3734 77.9946L59.3734 96.1446C57.2729 97.2999 54.7271 97.2999 52.6266 96.1446L19.6266 77.9946C17.3897 76.7644 16 74.4139 16 71.8611V36.1389C16 33.5861 17.3897 31.2356 19.6266 30.0054L52.6266 11.8554Z" fill="url(#paint0_radial_370_25050)" fill-opacity="0.179" shape-rendering="crispEdges"/>
</g>
<path d="M43.596 47C39.9919 47 37 49.9921 37 53.596C37 57.2001 39.9241 60.192 43.596 60.192C45.3639 60.192 47.0639 59.512 48.2201 58.2199C48.7642 57.6758 48.7642 56.8599 48.2201 56.3158C47.676 55.7717 46.8601 55.7717 46.316 56.3158C45.636 57.0638 44.616 57.4717 43.596 57.4717C41.4881 57.4717 39.7201 55.7717 39.7201 53.5958C39.7201 51.4879 41.4201 49.7199 43.596 49.7199C44.8201 49.7199 45.9081 50.1958 46.656 51.1479C47.1319 51.7599 47.9481 51.8279 48.5601 51.352C49.1722 50.8761 49.2401 50.0599 48.7642 49.4479C47.4721 47.884 45.636 47.0001 43.596 47.0001L43.596 47Z" fill="white"/>
<path d="M56.4467 47.4082C52.9108 47.4082 50.0547 50.2641 50.0547 53.8002C50.0547 57.3361 52.9106 60.1922 56.4467 60.1922C59.9826 60.1922 62.8387 57.3363 62.8387 53.8002C62.8387 50.2641 59.9828 47.4082 56.4467 47.4082ZM56.4467 57.4722C54.4067 57.4722 52.7746 55.8401 52.7746 53.8001C52.7746 51.7601 54.4067 50.1281 56.4467 50.1281C58.4867 50.1281 60.1187 51.7601 60.1187 53.8001C60.1187 55.8404 58.4867 57.4722 56.4467 57.4722Z" fill="white"/>
<path d="M74.4711 51.4882C74.4711 49.1761 72.2952 47.4082 69.3711 47.4082C66.379 47.4082 64.2711 49.1082 64.2031 51.4882C64.2031 52.2361 64.8152 52.8482 65.5631 52.8482C66.3111 52.8482 66.9231 52.2361 66.9231 51.4882C66.9231 50.3323 68.4872 50.0603 69.3031 50.0603C70.1872 50.0603 71.6831 50.4003 71.6831 51.4203C71.6831 52.0323 69.9152 53.0523 68.759 53.7323C66.6511 54.9564 64.2031 56.3844 64.2031 58.8323C64.2031 59.5802 64.8152 60.1923 65.5631 60.1923H72.9071C73.6551 60.1923 74.2671 59.5802 74.3351 58.9002C74.3351 58.1523 73.723 57.5402 72.9751 57.5402H68.011C68.623 57.0643 69.4389 56.5882 70.1868 56.1802C72.295 54.9561 74.471 53.7321 74.471 51.4882H74.4711Z" fill="white"/>
<defs>
<filter id="filter0_dii_370_25050" x="0" y="0.98877" width="112" height="118.022" filterUnits="userSpaceOnUse" color-interpolation-filters="sRGB">
<feFlood flood-opacity="0" result="BackgroundImageFix"/>
<feColorMatrix in="SourceAlpha" type="matrix" values="0 0 0 0 0 0 0 0 0 0 0 0 0 0 0 0 0 0 127 0" result="hardAlpha"/>
<feOffset dy="6"/>
<feGaussianBlur stdDeviation="8"/>
<feComposite in2="hardAlpha" operator="out"/>
<feColorMatrix type="matrix" values="0 0 0 0 0 0 0 0 0 0 0 0 0 0 0 0 0 0 0.25 0"/>
<feBlend mode="normal" in2="BackgroundImageFix" result="effect1_dropShadow_370_25050"/>
<feBlend mode="normal" in="SourceGraphic" in2="effect1_dropShadow_370_25050" result="shape"/>
<feColorMatrix in="SourceAlpha" type="matrix" values="0 0 0 0 0 0 0 0 0 0 0 0 0 0 0 0 0 0 127 0" result="hardAlpha"/>
<feOffset dx="-1.12" dy="1.12"/>
<feGaussianBlur stdDeviation="0.56"/>
<feComposite in2="hardAlpha" operator="arithmetic" k2="-1" k3="1"/>
<feColorMatrix type="matrix" values="0 0 0 0 1 0 0 0 0 1 0 0 0 0 1 0 0 0 0.558 0"/>
<feBlend mode="normal" in2="shape" result="effect2_innerShadow_370_25050"/>
<feColorMatrix in="SourceAlpha" type="matrix" values="0 0 0 0 0 0 0 0 0 0 0 0 0 0 0 0 0 0 127 0" result="hardAlpha"/>
<feOffset dx="1.12" dy="-1.12"/>
<feGaussianBlur stdDeviation="0.56"/>
<feComposite in2="hardAlpha" operator="arithmetic" k2="-1" k3="1"/>
<feColorMatrix type="matrix" values="0 0 0 0 0.84 0 0 0 0 0.84 0 0 0 0 0.84 0 0 0 0.558 0"/>
<feBlend mode="normal" in2="effect2_innerShadow_370_25050" result="effect3_innerShadow_370_25050"/>
</filter>
<radialGradient id="paint0_radial_370_25050" cx="0" cy="0" r="1" gradientUnits="userSpaceOnUse" gradientTransform="translate(56 54) rotate(90) scale(44 40)">
<stop stop-color="white"/>
<stop offset="1" stop-color="white" stop-opacity="0.21"/>
</radialGradient>
</defs>
</svg>

<svg width="112" height="120" fill="none" xmlns="http://www.w3.org/2000/svg"><g filter="url(#a)"><path d="M52.63 11.86a7 7 0 0 1 6.74 0l33 18.15A7 7 0 0 1 96 36.14v35.72A7 7 0 0 1 92.37 78l-33 18.15a7 7 0 0 1-6.74 0L19.63 78A7 7 0 0 1 16 71.86V36.14A7 7 0 0 1 19.63 30l33-18.15Z" fill="url(#b)" fill-opacity=".18" shape-rendering="crispEdges"/></g><path d="M43.6 47C40 47 37 50 37 53.6a6.6 6.6 0 0 0 6.6 6.6c1.76 0 3.46-.69 4.62-1.98.54-.54.54-1.36 0-1.9a1.31 1.31 0 0 0-1.9 0 3.7 3.7 0 0 1-2.72 1.15 3.87 3.87 0 1 1 0-7.75c1.22 0 2.3.48 3.06 1.43.47.61 1.29.68 1.9.2.61-.47.68-1.29.2-1.9A6.61 6.61 0 0 0 43.6 47ZM56.45 47.4a6.38 6.38 0 1 0-.02 12.78 6.38 6.38 0 0 0 .02-12.77Zm0 10.07a3.66 3.66 0 0 1-3.68-3.67 3.66 3.66 0 0 1 3.68-3.67 3.66 3.66 0 0 1 3.67 3.67 3.66 3.66 0 0 1-3.67 3.67ZM74.47 51.49c0-2.31-2.17-4.08-5.1-4.08-3 0-5.1 1.7-5.17 4.08 0 .75.62 1.36 1.36 1.36.75 0 1.36-.61 1.36-1.36 0-1.16 1.57-1.43 2.38-1.43.89 0 2.38.34 2.38 1.36 0 .61-1.76 1.63-2.92 2.31-2.1 1.23-4.56 2.65-4.56 5.1 0 .75.62 1.36 1.36 1.36h7.35c.75 0 1.36-.61 1.43-1.29 0-.75-.62-1.36-1.36-1.36H68c.61-.48 1.43-.95 2.18-1.36 2.1-1.22 4.28-2.45 4.28-4.7Z" fill="#fff"/><defs><radialGradient id="b" cx="0" cy="0" r="1" gradientUnits="userSpaceOnUse" gradientTransform="matrix(0 44 -40 0 56 54)"><stop stop-color="#fff"/><stop offset="1" stop-color="#fff" stop-opacity=".21"/></radialGradient><filter id="a" x="0" y=".99" width="112" height="118.02" filterUnits="userSpaceOnUse" color-interpolation-filters="sRGB"><feFlood flood-opacity="0" result="BackgroundImageFix"/><feColorMatrix in="SourceAlpha" values="0 0 0 0 0 0 0 0 0 0 0 0 0 0 0 0 0 0 127 0" result="hardAlpha"/><feOffset dy="6"/><feGaussianBlur stdDeviation="8"/><feComposite in2="hardAlpha" operator="out"/><feColorMatrix values="0 0 0 0 0 0 0 0 0 0 0 0 0 0 0 0 0 0 0.25 0"/><feBlend in2="BackgroundImageFix" result="effect1_dropShadow_370_25050"/><feBlend in="SourceGraphic" in2="effect1_dropShadow_370_25050" result="shape"/><feColorMatrix in="SourceAlpha" values="0 0 0 0 0 0 0 0 0 0 0 0 0 0 0 0 0 0 127 0" result="hardAlpha"/><feOffset dx="-1.12" dy="1.12"/><feGaussianBlur stdDeviation=".56"/><feComposite in2="hardAlpha" operator="arithmetic" k2="-1" k3="1"/><feColorMatrix values="0 0 0 0 1 0 0 0 0 1 0 0 0 0 1 0 0 0 0.558 0"/><feBlend in2="shape" result="effect2_innerShadow_370_25050"/><feColorMatrix in="SourceAlpha" values="0 0 0 0 0 0 0 0 0 0 0 0 0 0 0 0 0 0 127 0" result="hardAlpha"/><feOffset dx="1.12" dy="-1.12"/><feGaussianBlur stdDeviation=".56"/><feComposite in2="hardAlpha" operator="arithmetic" k2="-1" k3="1"/><feColorMatrix values="0 0 0 0 0.84 0 0 0 0 0.84 0 0 0 0 0.84 0 0 0 0.558 0"/><feBlend in2="effect2_innerShadow_370_25050" result="effect3_innerShadow_370_25050"/></filter></defs></svg>
